app/images/customer-modal/third-modal/analytics-outline.svg

<svg width="60" height="60" viewBox="0 0 60 60" fill="none" xmlns="http://www.w3.org/2000/svg">
<path d="M55.9082 51.6213C58.1644 51.6213 60 49.7857 60 47.5294V5.85938C60 2.62852 57.3715 0 54.1406 0H5.85938C2.62852 0 0 2.62852 0 5.85938V47.5294C0 49.7857 1.83562 51.6213 4.09184 51.6213H5.39062V57.6562H1.17188C0.524648 57.6562 0 58.181 0 58.8281C0 59.4752 0.524648 60 1.17188 60H58.8281C59.4754 60 60 59.4752 60 58.8281C60 58.181 59.4754 57.6562 58.8281 57.6562H54.6094V51.6213H55.9082ZM2.34375 5.85938C2.34375 3.92086 3.92086 2.34375 5.85938 2.34375H54.1406C56.0791 2.34375 57.6562 3.92086 57.6562 5.85938V8.4375H2.46141C2.42168 8.4375 2.38242 8.43961 2.34375 8.44348V5.85938ZM12.8906 57.6562H7.73438V47.1094H12.8906V57.6562ZM26.0156 57.6562H20.8594V34.1522H26.0156V57.6562ZM39.1406 57.6562H33.9844V44.0625H39.1406V57.6562ZM53.4375 30.0586H45.9375C45.2903 30.0586 44.7656 30.5834 44.7656 31.2305V37.1483C44.7656 37.7954 45.2903 38.3202 45.9375 38.3202C46.5847 38.3202 47.1094 37.7954 47.1094 37.1483V32.4023H52.2656V57.6562H47.1094V45.0293C47.1094 44.3822 46.5847 43.8574 45.9375 43.8574C45.2903 43.8574 44.7656 44.3822 44.7656 45.0293V57.6562H41.4844V42.8906C41.4844 42.2435 40.9597 41.7188 40.3125 41.7188H32.8125C32.1653 41.7188 31.6406 42.2435 31.6406 42.8906V57.6562H28.3594V32.9803C28.3594 32.3332 27.8347 31.8084 27.1875 31.8084H19.6875C19.0403 31.8084 18.5156 32.3332 18.5156 32.9803V57.6562H15.2344V45.9375C15.2344 45.2904 14.7097 44.7656 14.0625 44.7656H6.5625C5.91527 44.7656 5.39062 45.2904 5.39062 45.9375V49.2776H4.09184C3.12785 49.2776 2.34375 48.4934 2.34375 47.5294V10.7753C2.38242 10.7791 2.42168 10.7812 2.46141 10.7812H57.6562V47.5294C57.6562 48.4934 56.872 49.2776 55.9082 49.2776H54.6094V31.2305C54.6094 30.5834 54.0847 30.0586 53.4375 30.0586Z" fill="#303030"/>
<path d="M52.5 4.21875H26.0232C25.376 4.21875 24.8513 4.74352 24.8513 5.39062C24.8513 6.03773 25.376 6.5625 26.0232 6.5625H52.5C53.1472 6.5625 53.6718 6.03773 53.6718 5.39062C53.6718 4.74352 53.1472 4.21875 52.5 4.21875Z" fill="#303030"/>
<path d="M13.016 4.56211C12.798 4.34414 12.4957 4.21875 12.1875 4.21875C11.8793 4.21875 11.577 4.34402 11.359 4.56211C11.141 4.78008 11.0156 5.08242 11.0156 5.39062C11.0156 5.69883 11.141 6.00117 11.359 6.21902C11.577 6.43711 11.8793 6.5625 12.1875 6.5625C12.4957 6.5625 12.798 6.43711 13.016 6.21902C13.234 6.00117 13.3594 5.69883 13.3594 5.39062C13.3594 5.08242 13.234 4.78008 13.016 4.56211Z" fill="#303030"/>
<path d="M8.32852 4.56211C8.11055 4.34414 7.8082 4.21875 7.5 4.21875C7.1918 4.21875 6.88945 4.34402 6.67148 4.56211C6.45352 4.78008 6.32812 5.08242 6.32812 5.39062C6.32812 5.69883 6.45352 6.00117 6.67148 6.21902C6.88945 6.43711 7.1918 6.5625 7.5 6.5625C7.8082 6.5625 8.11055 6.43711 8.32852 6.21902C8.54648 6.00117 8.67188 5.69883 8.67188 5.39062C8.67188 5.08242 8.54648 4.78008 8.32852 4.56211Z" fill="#303030"/>
<path d="M17.7035 4.56211C17.4855 4.34414 17.1844 4.21875 16.875 4.21875C16.5668 4.21875 16.2645 4.34402 16.0465 4.56211C15.8285 4.78008 15.7031 5.08242 15.7031 5.39062C15.7031 5.69883 15.8285 6.00117 16.0465 6.21902C16.2645 6.43711 16.5668 6.5625 16.875 6.5625C17.1832 6.5625 17.4855 6.43711 17.7035 6.21902C17.9215 6.00117 18.0469 5.69883 18.0469 5.39062C18.0469 5.08242 17.9215 4.78008 17.7035 4.56211Z" fill="#303030"/>
<path d="M46.766 40.4962C46.548 40.277 46.2457 40.1528 45.9375 40.1528C45.6293 40.1528 45.327 40.2772 45.109 40.4962C44.891 40.7142 44.7656 41.0165 44.7656 41.3247C44.7656 41.6329 44.891 41.9353 45.109 42.1532C45.327 42.3711 45.6293 42.4966 45.9375 42.4966C46.2457 42.4966 46.548 42.3712 46.766 42.1532C46.984 41.9353 47.1094 41.6329 47.1094 41.3247C47.1094 41.0153 46.984 40.7142 46.766 40.4962Z" fill="#303030"/>
<path d="M49.6874 15.9302C47.3611 15.9302 45.4687 17.8226 45.4687 20.1489C45.4687 21.0729 45.7681 21.9279 46.2739 22.6237L38.4897 30.4079C37.8856 30.0735 37.1916 29.8825 36.4536 29.8825C35.7885 29.8825 35.1592 30.0378 34.5992 30.3131L26.4712 22.1851C26.8055 21.581 26.9965 20.887 26.9965 20.1489C26.9965 17.8226 25.1041 15.9302 22.7778 15.9302C20.4515 15.9302 18.559 17.8226 18.559 20.1489C18.559 20.962 18.7908 21.7216 19.1909 22.3663L12.2706 29.2865C11.6665 28.9522 10.9725 28.7611 10.2346 28.7611C7.90833 28.7611 6.01587 30.6536 6.01587 32.9799C6.01587 35.3062 7.90833 37.1986 10.2346 37.1986C12.5609 37.1986 14.4534 35.3062 14.4534 32.9799C14.4534 32.2419 14.2624 31.5479 13.928 30.9438L20.9309 23.9409C21.4891 24.2138 22.1158 24.3676 22.7778 24.3676C23.5157 24.3676 24.2097 24.1765 24.8138 23.8422L32.8622 31.8905C32.4649 32.5339 32.2348 33.2909 32.2348 34.101C32.2348 36.4273 34.1273 38.3198 36.4536 38.3198C38.7799 38.3198 40.6723 36.4273 40.6723 34.101C40.6723 33.363 40.4813 32.669 40.147 32.0649L48.1397 24.0721C48.6194 24.2622 49.1412 24.3677 49.6874 24.3677C52.0137 24.3677 53.9062 22.4752 53.9062 20.1489C53.9062 17.8226 52.0137 15.9302 49.6874 15.9302ZM10.2347 34.8551C9.20091 34.8551 8.35974 34.014 8.35974 32.9801C8.35974 31.9463 9.20091 31.1051 10.2347 31.1051C11.2686 31.1051 12.1097 31.9463 12.1097 32.9801C12.1097 34.014 11.2686 34.8551 10.2347 34.8551ZM22.7779 22.0239C21.7441 22.0239 20.9029 21.1828 20.9029 20.1489C20.9029 19.1151 21.7441 18.2739 22.7779 18.2739C23.8117 18.2739 24.6529 19.1151 24.6529 20.1489C24.6529 21.1828 23.8117 22.0239 22.7779 22.0239ZM36.4537 35.9763C35.4199 35.9763 34.5787 35.1351 34.5787 34.1013C34.5787 33.0674 35.4199 32.2263 36.4537 32.2263C37.4875 32.2263 38.3287 33.0674 38.3287 34.1013C38.3287 35.1351 37.4875 35.9763 36.4537 35.9763ZM49.6874 22.0239C48.6536 22.0239 47.8124 21.1828 47.8124 20.1489C47.8124 19.1151 48.6536 18.2739 49.6874 18.2739C50.7213 18.2739 51.5624 19.1151 51.5624 20.1489C51.5624 21.1828 50.7213 22.0239 49.6874 22.0239Z" fill="#303030"/>
<path d="M17.3825 15.1115C17.1633 14.8936 16.8622 14.7681 16.554 14.7681C16.2446 14.7681 15.9422 14.8935 15.7243 15.1115C15.5063 15.3294 15.3821 15.6317 15.3821 15.9399C15.3821 16.2481 15.5063 16.5505 15.7243 16.7685C15.9434 16.9864 16.2446 17.1118 16.554 17.1118C16.8622 17.1118 17.1633 16.9865 17.3825 16.7685C17.6004 16.5505 17.7258 16.2481 17.7258 15.9399C17.7258 15.6317 17.6004 15.3294 17.3825 15.1115Z" fill="#303030"/>
<path d="M12.1875 14.7681H6.5625C5.91527 14.7681 5.39062 15.2928 5.39062 15.9399C5.39062 16.587 5.91527 17.1118 6.5625 17.1118H12.1875C12.8347 17.1118 13.3594 16.587 13.3594 15.9399C13.3594 15.2928 12.8347 14.7681 12.1875 14.7681Z" fill="#303030"/>
<path d="M12.1875 20.3931H6.5625C5.91527 20.3931 5.39062 20.9178 5.39062 21.5649C5.39062 22.2121 5.91527 22.7368 6.5625 22.7368H12.1875C12.8347 22.7368 13.3594 22.2121 13.3594 21.5649C13.3594 20.9178 12.8347 20.3931 12.1875 20.3931Z" fill="#303030"/>
</svg>

<svg width="60" height="60" fill="none" xmlns="http://www.w3.org/2000/svg"><path d="M55.908 51.621A4.096 4.096 0 0060 47.53V5.86C60 2.63 57.371 0 54.14 0H5.86A5.866 5.866 0 000 5.86v41.67a4.097 4.097 0 004.092 4.091H5.39v6.035H1.17a1.172 1.172 0 000 2.344h57.657a1.172 1.172 0 000-2.344H54.61v-6.035h1.3zM2.344 5.86a3.52 3.52 0 013.515-3.515h48.282a3.52 3.52 0 013.515 3.515v2.579H2.461c-.04 0-.079.002-.117.005V5.86zM12.89 57.656H7.734V47.11h5.157v10.547zm13.125 0h-5.157V34.152h5.157v23.504zm13.125 0h-5.157V44.063h5.157v13.593zM53.438 30.06h-7.5c-.648 0-1.172.524-1.172 1.171v5.918a1.172 1.172 0 002.343 0v-4.746h5.157v25.254h-5.157V45.03a1.172 1.172 0 00-2.343 0v12.627h-3.282V42.891c0-.648-.524-1.172-1.172-1.172h-7.5c-.647 0-1.171.524-1.171 1.172v14.765h-3.282V32.98c0-.647-.524-1.172-1.172-1.172h-7.5c-.647 0-1.171.525-1.171 1.172v24.676h-3.282V45.938c0-.648-.524-1.172-1.171-1.172h-7.5c-.648 0-1.172.524-1.172 1.172v3.34h-1.3a1.75 1.75 0 01-1.747-1.749V10.775c.038.004.078.006.117.006h55.195V47.53a1.75 1.75 0 01-1.748 1.749H54.61V31.23c0-.648-.524-1.172-1.172-1.172z" fill="#303030"/><path d="M52.5 4.219H26.023a1.172 1.172 0 000 2.343H52.5a1.172 1.172 0 000-2.343zM13.016 4.562a1.18 1.18 0 00-.829-.343c-.308 0-.61.125-.828.343a1.18 1.18 0 00-.343.829c0 .308.125.61.343.828.218.218.52.343.829.343.308 0 .61-.125.828-.343a1.18 1.18 0 00.343-.828c0-.309-.125-.61-.343-.829zM8.329 4.562A1.18 1.18 0 007.5 4.22c-.308 0-.61.125-.829.343a1.18 1.18 0 00-.343.829c0 .308.126.61.343.828.218.218.52.343.829.343.308 0 .61-.125.829-.343a1.18 1.18 0 00.343-.828c0-.309-.126-.61-.343-.829zM17.703 4.562a1.179 1.179 0 00-.828-.343c-.308 0-.61.125-.828.343a1.18 1.18 0 00-.344.829c0 .308.126.61.344.828.218.218.52.343.828.343.308 0 .61-.125.828-.343a1.18 1.18 0 00.344-.828c0-.309-.125-.61-.344-.829zM46.766 40.496a1.176 1.176 0 00-.828-.343 1.176 1.176 0 00-1.172 1.172c0 .308.125.61.343.828.218.218.52.344.828.344.309 0 .611-.126.829-.344a1.18 1.18 0 00.343-.828c0-.31-.125-.61-.343-.829zM49.687 15.93a4.223 4.223 0 00-4.218 4.219c0 .924.3 1.779.805 2.475l-7.784 7.784a4.192 4.192 0 00-2.036-.526c-.666 0-1.295.156-1.855.431l-8.128-8.128a4.193 4.193 0 00.526-2.036 4.223 4.223 0 00-4.22-4.219 4.223 4.223 0 00-4.218 4.219c0 .813.232 1.573.632 2.217l-6.92 6.92a4.193 4.193 0 00-2.036-.525 4.223 4.223 0 00-4.22 4.219 4.223 4.223 0 004.22 4.219 4.223 4.223 0 004.218-4.22c0-.737-.19-1.431-.525-2.035l7.003-7.003a4.194 4.194 0 001.847.427c.738 0 1.432-.191 2.036-.526l8.048 8.049a4.194 4.194 0 00-.627 2.21 4.224 4.224 0 004.219 4.219 4.223 4.223 0 004.218-4.219c0-.738-.19-1.432-.525-2.036l7.993-7.993c.48.19 1.001.296 1.547.296a4.224 4.224 0 004.22-4.22 4.223 4.223 0 00-4.22-4.218zM10.235 34.855A1.877 1.877 0 018.36 32.98c0-1.034.84-1.875 1.875-1.875 1.034 0 1.875.841 1.875 1.875a1.877 1.877 0 01-1.875 1.875zm12.543-12.831a1.877 1.877 0 01-1.875-1.875c0-1.034.841-1.875 1.875-1.875s1.875.841 1.875 1.875a1.877 1.877 0 01-1.875 1.875zm13.676 13.952a1.877 1.877 0 01-1.875-1.875c0-1.034.84-1.875 1.875-1.875 1.033 0 1.875.841 1.875 1.875a1.877 1.877 0 01-1.875 1.875zm13.233-13.952a1.877 1.877 0 01-1.875-1.875c0-1.034.842-1.875 1.875-1.875 1.034 0 1.875.841 1.875 1.875a1.877 1.877 0 01-1.875 1.875zM17.383 15.111a1.183 1.183 0 00-.829-.343c-.31 0-.612.125-.83.343a1.18 1.18 0 00-.342.829c0 .308.124.61.342.829.22.217.52.343.83.343.308 0 .61-.125.829-.343.217-.218.343-.52.343-.83 0-.307-.126-.61-.343-.828zM12.188 14.768H6.561a1.172 1.172 0 100 2.344h5.625a1.172 1.172 0 000-2.344zM12.188 20.393H6.561a1.172 1.172 0 100 2.344h5.625a1.172 1.172 0 000-2.344z" fill="#303030"/></svg>
